X:1
T:The Dark British Foes
M:3/4
L:1/4
K:Bb
 F| F2 d/2B/2| c2 A/2F/2| G B G| F2 B| c B A| B3/2 c/2 d| e d B| c2 A|\
 c A c| d f3/2 d/2| d B d| c2 F3/4 F/4| F2 d/2B/2| c2 B/2F/2| G B G|\
 F2||
